X:176
T:Rule Brittannia TS.176
M:C|
L:1/8
Q:1/4=110
S:Thomas Sands’ MS,1810,Lincolnshire
R:Air
C:Thomas Arne 1740
O:England;Lincolnshire
Z:vmp.Ruairidh Greig, 2011
K:D
A|d2d2 d/e/f/g/ ad|e>f (e/f/g/a/){g}^f3A|d/c/d/e/ f/e/f/g/ aefc|d>fed c3z|
zA ec ag/f/ e/d/c/B/|A2B2A2::A|d2dA BGz B|gfed c2ze|
a2g2(f/d/)(g/e/) ad|A2{f/}e2d2z|f3eg3f|(gf)(ed)c3e|a2g2(f/d/)(g/e/) ad|A2e2d2:|]

